X:495
T:B495-  We All to Conquering Beauty Bow
S:This tune c 1724 and later abandonded for John Anderson, My Jo.
Q:1/4=120
L:1/4
M:C|
K:Dm
D|d^cdA|d(f/e/)^c(=B/A/)|(d/^c/d/)A/ (B/A/G/)F/|E3D|\
d^ddA|d(f/e/)^cA|(f/e/) (d/=c/)c(=B/A/)|A3||e|\
f(e/d/)d(e/f/)|e(d/c/)f3/2a/|gf(d/A/) (G/F/)|G3E|\
F(E/D/) (A/=B/)^c|dGE3/2D/|(F/G/)A(=B3/4d/4)^c|.d3|]
